svg/Pictogram/pictograms-aem-0083-never_reach_into_area_where_parts_are_in_motion.svg

<?xml version="1.0" encoding="ISO-8859-1" standalone="yes"?>
<svg height="304.014" width="304.015">
  <metadata>
    <rdf:RDF xmlns:cc="http://web.resource.org/cc/" xmlns:dc="http://purl.org/dc/elements/1.1/" xmlns:rdf="http://www.w3.org/1999/02/22-rdf-syntax-ns#">
      <cc:Work rdf:about="">
        <dc:title></dc:title>
        <dc:description></dc:description>
        <dc:subject>
          <rdf:Bag>
            <rdf:li></rdf:li>
          </rdf:Bag>
        </dc:subject>
        <dc:publisher>
          <cc:Agent rdf:about="http://www.unece.org/trans/danger/publi/ghs/pictograms.html">
            <dc:title>Source: UNECE GHS of Classification and Labeling of Chemicals, Source: AEM Pictorial Database, Source: AEM Pictorial Database, Source: AEM Pictorial Database, Source: AEM Pictorial Database</dc:title>
          </cc:Agent>
        </dc:publisher>
        <dc:creator>
          <cc:Agent>
            <dc:title></dc:title>
          </cc:Agent>
        </dc:creator>
        <dc:rights>
          <cc:Agent>
            <dc:title></dc:title>
          </cc:Agent>
        </dc:rights>
        <dc:date></dc:date>
        <dc:format>image/svg+xml</dc:format>
        <dc:type rdf:resource="http://purl.org/dc/dcmitype/StillImage"/>
        <cc:license rdf:resource="http://en.wikipedia.org/wiki/Public_domain"/>
        <dc:language>en</dc:language>
      </cc:Work>
    </rdf:RDF>
  </metadata>
  <defs><marker id="ArrowEnd" markerHeight="3" markerUnits="strokeWidth" markerWidth="4" orient="auto" refX="0" refY="5" viewBox="0 0 10 10"><path d="M 0 0 L 10 5 L 0 10 z"/></marker><marker id="ArrowStart" markerHeight="3" markerUnits="strokeWidth" markerWidth="4" orient="auto" refX="10" refY="5" viewBox="0 0 10 10"><path d="M 10 0 L 0 5 L 10 10 z"/></marker> </defs>
  <g id="g2958" transform="matrix(1.3532768,0,0,1.3532781,-53.207834,-52.192858)">
    <path d="M 81.8584 136.854C 79.9334 138.018 78.1594 139.491 76.5894 141.334L 60.0074 141.584L 59.9764 171.663C 68.9094 171.713 72.9134 171.975 76.3904 171.928L 96.6634 151.655L 81.8584 136.854" style="stroke:none; fill-rule:evenodd; fill:#000000"/>
    <path d="M 129.151 141.272C 129.839 141.272 135.237 139.866 135.644 133.014L 133.772 133.014L 125.519 141.272L 129.151 141.272" style="stroke:none; fill-rule:evenodd; fill:#000000"/>
    <path d="M 115.288 133.026L 106.874 133.03L 102.108 133.014C 100.206 132.916 98.3194 132.893 96.4564 132.975L 105.901 142.416L 115.292 133.026" style="stroke:none; fill-rule:evenodd; fill:#000000"/>
    <path d="M 152.147 170.057C 154.308 170.057 156.058 168.307 156.058 166.147C 156.058 163.991 154.308 162.241 152.147 162.241L 125.722 162.241L 133.538 170.057L 152.147 170.057" style="stroke:none; fill-rule:evenodd; fill:#000000"/>
    <path d="M 158.038 152.717L 117.089 152.717L 117.183 152.713C 116.71 152.713 116.331 152.331 116.331 151.862C 116.331 151.389 116.71 151.006 117.183 151.006L 117.183 151.006L 152.022 151.006C 154.179 151.006 155.929 149.256 155.929 147.096C 155.929 144.94 154.179 143.19 152.022 143.19L 123.601 143.19L 115.136 151.655L 124.015 160.53L 158.038 160.53C 160.194 160.53 161.944 158.78 161.944 156.624C 161.944 154.463 160.194 152.713 158.038 152.713" style="stroke:none; fill-rule:evenodd; fill:#000000"/>
    <path d="M 88.2064 178.584C 90.7184 179.288 93.3904 179.62 96.1944 179.581L 101.253 179.573L 101.253 179.581L 124.589 179.581L 105.897 160.889L 88.2064 178.584" style="stroke:none; fill-rule:evenodd; fill:#000000"/>
    <path d="M 146.03 175.67C 146.03 173.51 144.28 171.764 142.12 171.764L 135.241 171.764L 142.964 179.483C 144.718 179.096 146.03 177.541 146.03 175.67" style="stroke:none; fill-rule:evenodd; fill:#000000"/>
    <path d="M 151.651 188.17L 115.136 151.655L 151.644 115.147L 142.351 105.967L 105.897 142.416L 69.4604 105.975L 60.1944 115.182L 96.6634 151.655L 60.1834 188.131L 69.4764 197.311L 105.901 160.889L 142.331 197.319L 151.655 188.17" style="stroke:none; fill-rule:evenodd; fill:#ff3e3e"/>
    <path d="M 198.702 169.444L 166.058 169.866L 166.12 175.088L 183.562 174.85C 171.261 181.686 162.839 194.713 162.585 209.795C 162.214 232.284 180.144 250.823 202.632 251.194C 225.124 251.569 243.659 233.639 244.034 211.147C 244.23 199.256 239.312 188.467 231.304 180.889L 227.972 185.479C 234.538 191.995 238.546 201.073 238.378 211.053C 238.058 230.487 222.042 245.975 202.608 245.655C 183.179 245.331 167.687 229.315 168.011 209.885C 168.237 196.225 176.218 184.514 187.69 178.874L 178.671 195.631L 183.269 198.112L 198.702 169.444" style="stroke:none; fill-rule:evenodd; fill:#000000"/>
    <path d="M 198.761 134.581L 183.304 105.948L 178.71 108.44L 187.769 125.174C 176.284 119.561 168.276 107.87 168.015 94.2134C 167.647 74.7844 183.101 58.7294 202.53 58.3624C 221.964 57.9914 238.015 73.4444 238.386 92.8774C 238.573 102.858 234.589 111.944 228.034 118.475L 231.382 123.057C 239.37 115.459 244.265 104.659 244.038 92.7684C 243.608 70.2804 225.03 52.3934 202.542 52.8194C 180.054 53.2484 162.167 71.8274 162.593 94.3154C 162.878 109.397 171.331 122.405 183.651 129.209L 166.21 129.01L 166.159 134.237L 198.761 134.581" style="stroke:none; fill-rule:evenodd; fill:#000000"/>
    <path d="M 29.6204 265.393L 2.62042 265.393" style="stroke:#000000; stroke-width:0.5; fill:none"/>
    <path d="M 38.6204 274.393L 38.6204 301.393" style="stroke:#000000; stroke-width:0.5; fill:none"/>
    <path d="M 29.6204 38.6204L 2.62042 38.6204" style="stroke:#000000; stroke-width:0.5; fill:none"/>
    <path d="M 38.6204 29.6204L 38.6204 2.62042" style="stroke:#000000; stroke-width:0.5; fill:none"/>
    <path d="M 274.394 38.6204L 301.394 38.6204" style="stroke:#000000; stroke-width:0.5; fill:none"/>
    <path d="M 265.394 29.6204L 265.394 2.62042" style="stroke:#000000; stroke-width:0.5; fill:none"/>
    <path d="M 274.394 265.393L 301.394 265.393" style="stroke:#000000; stroke-width:0.5; fill:none"/>
    <path d="M 265.394 274.393L 265.394 301.393" style="stroke:#000000; stroke-width:0.5; fill:none"/>
  </g>
</svg>

<svg viewBox="0 0 304.01 304.01"><g transform="matrix(1.35328 0 0 1.35328-53.21-52.19)" fill-rule="evenodd"><path d="m81.86 136.85c-1.925 1.164-3.699 2.637-5.269 4.48l-16.582.25-.031 30.08c8.933.05 12.937.312 16.414.265l20.273-20.273-14.805-14.801"/><path d="m129.15 141.27c.688 0 6.086-1.406 6.493-8.258h-1.872l-8.253 8.258h3.632"/><path d="m115.29 133.03l-8.414.004-4.766-.016c-1.902-.098-3.789-.121-5.652-.039l9.445 9.441 9.391-9.39"/><path d="m152.15 170.06c2.161 0 3.911-1.75 3.911-3.91 0-2.156-1.75-3.906-3.911-3.906h-26.425l7.816 7.816h18.609"/><path d="m158.04 152.72h-40.949l.094-.004c-.473 0-.852-.382-.852-.851 0-.473.379-.856.852-.856h34.839c2.157 0 3.907-1.75 3.907-3.91 0-2.156-1.75-3.906-3.907-3.906h-28.421l-8.465 8.465 8.879 8.875h34.02c2.156 0 3.906-1.75 3.906-3.906 0-2.161-1.75-3.911-3.906-3.911"/><path d="m88.21 178.58c2.512.704 5.184 1.036 7.988.997l5.059-.008v.008h23.336l-18.692-18.692-17.691 17.695"/><path d="m146.03 175.67c0-2.16-1.75-3.906-3.91-3.906h-6.879l7.723 7.719c1.754-.387 3.066-1.942 3.066-3.813"/><path d="m151.65 188.17l-36.515-36.515 36.508-36.508-9.293-9.18-36.454 36.449-36.437-36.441-9.266 9.207 36.469 36.473-36.48 36.476 9.293 9.18 36.425-36.422 36.43 36.43 9.324-9.149" fill="#ff3e3e"/><path d="m198.7 169.44l-32.644.422.062 5.222 17.442-.238c-12.301 6.836-20.723 19.863-20.977 34.945-.371 22.489 17.559 41.03 40.05 41.4 22.492.375 41.03-17.555 41.4-40.05.196-11.891-4.722-22.68-12.73-30.26l-3.332 4.59c6.566 6.516 10.574 15.594 10.406 25.574-.32 19.434-16.336 34.922-35.77 34.602-19.429-.324-34.921-16.34-34.597-35.77.226-13.66 8.207-25.371 19.679-31.01l-9.02 16.757 4.598 2.481 15.433-28.668"/><path d="m198.76 134.58l-15.457-28.633-4.594 2.492 9.06 16.734c-11.485-5.613-19.493-17.304-19.754-30.961-.368-19.429 15.09-35.484 34.515-35.851 19.434-.371 35.485 15.08 35.856 34.515.187 9.981-3.797 19.07-10.352 25.598l3.348 4.582c7.988-7.598 12.883-18.398 12.656-30.29-.43-22.488-19.01-40.37-41.496-39.949-22.488.429-40.37 19.01-39.949 41.496.285 15.08 8.738 28.09 21.06 34.894l-17.441-.199-.051 5.227 32.602.344"/></g></svg>
